data/poetsen-one.svg

<svg width="81.41" height="16.8" viewBox="0 0 81.41 16.8" xmlns="http://www.w3.org/2000/svg"><path transform="translate(0 14) scale(.014 -.014)" d="m155 0q-57 0-80.5 22.5t-23.5 66.5q0 13 1.5 41.5t4.5 67.5 6.5 85 7.5 94q5 59 8.5 101.5t5.5 73 3.5 51 2 36 1 28.5 0.5 28q0 8 5 11.5t10 3.5q26 0 57 1.5t62 3.5 60 3.5 51 1.5q64 0 110-15.5t74.5-45 42-71.5 13.5-96q0-59-15.5-113.5t-48.5-96.5-85-67-124-25q-43 0-73 9l-14-184q-1-8-4-11.5t-12-3.5zm162 570q-13 0-29-1.5t-34-3.5q-2-42-5-102t-8-126q15-4 29.5-5.5t26.5-1.5q35 0 56.5 16.5t33.5 40.5 16 50 4 45q0 43-19.5 65.5t-70.5 22.5z"/><path transform="translate(8.232 14) scale(.014 -.014)" d="m265-10q-69 0-114.5 19.5t-72.5 53.5-38 79.5-11 97.5q0 60 14.5 117.5t49.5 102.5 92.5 72.5 143.5 27.5q126 0 180.5-61.5t54.5-172.5q0-31-4.5-68.5t-17-74.5-34-72-54.5-62-79.5-43-109.5-16zm47 437q-38 0-60.5-19.5t-34-47-15-58-3.5-51.5q0-66 21-97t60-31q35 0 57.5 22t35 53 17 65 4.5 57q0 50-18.5 78.5t-63.5 28.5z"/><path transform="translate(16.604 14) scale(.014 -.014)" d="m272-10q-44 0-87.5 11t-78 38-56.5 72-22 113q0 25 4 60t15.5 72 32 73.5 53.5 65.5 80 47 112 18q52 0 88-12t58-32.5 32-47.5 10-58q0-46-18.5-78t-48-53.5-65.5-33.5-71-18.5-64.5-8-45.5-1.5q0-19 5.5-37.5t16.5-32.5 29-23 44-9 40.5 8.5 23.5 19 15.5 19 17.5 8.5q5 0 17.5-2.5t25.5-10.5 23-22 10-36q0-29-18-50t-46.5-34-63.5-19-68-6zm19 437q-22 0-37.5-12.5t-26-31.5-16-42-8.5-44q62 1 100.5 21t38.5 57q0 20-12.5 36t-38.5 16z"/><path transform="translate(24.052 14) scale(.014 -.014)" d="m256 415q-3-38-6.5-75t-6.5-70-4.5-59-1.5-40q0-26 6-34.5t20-8.5q11 0 19 4t15 9 12.5 9 12.5 4 13-8 6-37q0-55-30-87t-103-32q-72 0-106.5 33.5t-34.5 102.5q0 15 1.5 35.5t4.5 53.5 7.5 81 9.5 119h-53q-8 0-9.5 3.5t-1.5 10.5l3 51q1 13 3.5 25.5t10 22.5 21.5 16 37 6q7 18 16 43t18 48.5 17.5 39.5 15.5 16h29q42 0 58-26t16-62q0-20-3-59h105q16 0 16-14l-4-54q-2-30-16.5-48.5t-59.5-18.5z"/><path transform="translate(29.638 14) scale(.014 -.014)" d="m274 560q85 0 125-33.5t40-85.5q0-44-27.5-67t-79.5-23q-14 0-19 3t-5 11q0 9-1.5 20.5t-7 22-17 17.5-32.5 7q-28 0-45-13.5t-17-33.5q0-21 17.5-33.5t44-23.5 57.5-22.5 57.5-30.5 44-47.5 17.5-73.5q0-72-51-118t-153-46q-28 0-64.5 4.5t-69.5 14-55.5 25.5-22.5 40q0 9 3.5 22t11 25 18 20.5 25.5 8.5q12 0 22-6t23.5-12.5 33.5-12.5 53-6q25 0 44.5 6t19.5 27q0 19-16 30.5t-40.5 21.5-53 21.5-53 30.5-40.5 48.5-16 76.5q0 51 20.5 86.5t53 57.5 73.5 31.5 82 9.5z"/><path transform="translate(36.218 14) scale(.014 -.014)" d="m272-10q-44 0-87.5 11t-78 38-56.5 72-22 113q0 25 4 60t15.5 72 32 73.5 53.5 65.5 80 47 112 18q52 0 88-12t58-32.5 32-47.5 10-58q0-46-18.5-78t-48-53.5-65.5-33.5-71-18.5-64.5-8-45.5-1.5q0-19 5.5-37.5t16.5-32.5 29-23 44-9 40.5 8.5 23.5 19 15.5 19 17.5 8.5q5 0 17.5-2.5t25.5-10.5 23-22 10-36q0-29-18-50t-46.5-34-63.5-19-68-6zm19 437q-22 0-37.5-12.5t-26-31.5-16-42-8.5-44q62 1 100.5 21t38.5 57q0 20-12.5 36t-38.5 16z"/><path transform="translate(43.666 14) scale(.014 -.014)" d="m382 88q0 22 3.5 57.5t7 75 7 76.5 3.5 62q0 26-12.5 46.5t-48.5 20.5q-35 0-58-17t-38.5-62-25.5-124-19-203q-1-12-5-16t-17-4h-36q-31 0-50.5 6.5t-31 18.5-16 29.5-4.5 40.5q0 15 1.5 42.5t5.5 76 9.5 123 13.5 184.5q1 22 5 26 3 3 16 3h39q30 0 49.5-7t31.5-18.5 17-27 6-31.5q31 53 71 73.5t100 20.5q42 0 73-9t51.5-30.5 30.5-56 10-85.5q0-16-2-46t-5-65.5-6.5-74-6.5-71.5-5-58-2-33q0-22-5-26.5t-22-4.5h-32q-32 0-52 6t-31 17-15.5 27.5-4.5 37.5z"/><path transform="translate(55.342 14) scale(.014 -.014)" d="m405 721q73 0 125-20.5t85-60 48-96 15-128.5q0-40-5.5-87t-20-94.5-39.5-91.5-64.5-78-94.5-54.5-130-20.5q-83 0-137.5 25t-87 67.5-46 100.5-13.5 124q0 78 18 152.5t60.5 132.5 112.5 93.5 174 35.5zm-21-155q-35 0-60.5-12.5t-43-33.5-28-47-16.5-53.5-8-53-2-45.5q0-91 30.5-133t86.5-42q46 0 75 29.5t45.5 71 22.5 86 6 75.5q0 73-25 115.5t-83 42.5z"/><path transform="translate(65.296 14) scale(.014 -.014)" d="m382 88q0 22 3.5 57.5t7 75 7 76.5 3.5 62q0 26-12.5 46.5t-48.5 20.5q-35 0-58-17t-38.5-62-25.5-124-19-203q-1-12-5-16t-17-4h-36q-31 0-50.5 6.5t-31 18.5-16 29.5-4.5 40.5q0 15 1.5 42.5t5.5 76 9.5 123 13.5 184.5q1 22 5 26 3 3 16 3h39q30 0 49.5-7t31.5-18.5 17-27 6-31.5q31 53 71 73.5t100 20.5q42 0 73-9t51.5-30.5 30.5-56 10-85.5q0-16-2-46t-5-65.5-6.5-74-6.5-71.5-5-58-2-33q0-22-5-26.5t-22-4.5h-32q-32 0-52 6t-31 17-15.5 27.5-4.5 37.5z"/><path transform="translate(73.962 14) scale(.014 -.014)" d="m272-10q-44 0-87.5 11t-78 38-56.5 72-22 113q0 25 4 60t15.5 72 32 73.5 53.5 65.5 80 47 112 18q52 0 88-12t58-32.5 32-47.5 10-58q0-46-18.5-78t-48-53.5-65.5-33.5-71-18.5-64.5-8-45.5-1.5q0-19 5.5-37.5t16.5-32.5 29-23 44-9 40.5 8.5 23.5 19 15.5 19 17.5 8.5q5 0 17.5-2.5t25.5-10.5 23-22 10-36q0-29-18-50t-46.5-34-63.5-19-68-6zm19 437q-22 0-37.5-12.5t-26-31.5-16-42-8.5-44q62 1 100.5 21t38.5 57q0 20-12.5 36t-38.5 16z"/></svg>

<?xml version="1.0" encoding="utf-8" ?>
<svg baseProfile="tiny" height="100%" version="1.2" width="100%" xmlns="http://www.w3.org/2000/svg" xmlns:ev="http://www.w3.org/2001/xml-events" xmlns:xlink="http://www.w3.org/1999/xlink"><defs /><g><path d="M155 0Q98 0 74.5 22.5Q51 45 51 89Q51 102 52.5 130.5Q54 159 57.0 198.0Q60 237 63.5 283.0Q67 329 71 377Q76 436 79.5 478.5Q83 521 85.0 551.5Q87 582 88.5 602.5Q90 623 90.5 638.5Q91 654 91.5 667.0Q92 680 92 695Q92 703 97.0 706.5Q102 710 107 710Q133 710 164.0 711.5Q195 713 226.0 715.0Q257 717 286.0 718.5Q315 720 337 720Q401 720 447.0 704.5Q493 689 521.5 659.5Q550 630 563.5 588.0Q577 546 577 492Q577 433 561.5 378.5Q546 324 513.0 282.0Q480 240 428.0 215.0Q376 190 304 190Q261 190 231 199L217 15Q216 7 213.0 3.5Q210 0 201 0ZM317 570Q304 570 288.0 568.5Q272 567 254 565Q252 523 249.0 463.0Q246 403 241 337Q256 333 270.5 331.5Q285 330 297 330Q332 330 353.5 346.5Q375 363 387.0 387.0Q399 411 403.0 437.0Q407 463 407 482Q407 525 387.5 547.5Q368 570 317 570Z" transform="translate(0.0, 72) scale(0.072, -0.072)" /><path d="M265 -10Q196 -10 150.5 9.5Q105 29 78.0 63.0Q51 97 40.0 142.5Q29 188 29 240Q29 300 43.5 357.5Q58 415 93.0 460.0Q128 505 185.5 532.5Q243 560 329 560Q455 560 509.5 498.5Q564 437 564 326Q564 295 559.5 257.5Q555 220 542.5 183.0Q530 146 508.5 111.0Q487 76 454.0 49.0Q421 22 374.5 6.0Q328 -10 265 -10ZM312 427Q274 427 251.5 407.5Q229 388 217.5 360.5Q206 333 202.5 302.5Q199 272 199 251Q199 185 220.0 154.0Q241 123 280 123Q315 123 337.5 145.0Q360 167 372.5 198.0Q385 229 389.5 263.0Q394 297 394 320Q394 370 375.5 398.5Q357 427 312 427Z" transform="translate(42.336, 72) scale(0.072, -0.072)" /><path d="M272 -10Q228 -10 184.5 1.0Q141 12 106.5 39.0Q72 66 50.0 111.0Q28 156 28 224Q28 249 32.0 284.0Q36 319 47.5 356.0Q59 393 79.5 429.5Q100 466 133.0 495.0Q166 524 213.0 542.0Q260 560 325 560Q377 560 413.0 548.0Q449 536 471.0 515.5Q493 495 503.0 468.0Q513 441 513 410Q513 364 494.5 332.0Q476 300 446.5 278.5Q417 257 381.0 245.0Q345 233 310.0 226.5Q275 220 245.5 218.5Q216 217 200 217Q200 198 205.5 179.5Q211 161 222.0 147.0Q233 133 251.0 124.0Q269 115 295 115Q321 115 335.5 123.5Q350 132 359.0 142.5Q368 153 374.5 161.5Q381 170 392 170Q397 170 409.5 167.5Q422 165 435.0 157.0Q448 149 458.0 135.0Q468 121 468 99Q468 70 450.0 49.0Q432 28 403.5 15.0Q375 2 340.0 -4.0Q305 -10 272 -10ZM291 427Q269 427 253.5 414.5Q238 402 227.5 383.0Q217 364 211.5 341.0Q206 318 203 297Q265 298 303.5 318.0Q342 338 342 375Q342 395 329.5 411.0Q317 427 291 427Z" transform="translate(85.392, 72) scale(0.072, -0.072)" /><path d="M256 415Q253 377 249.5 340.0Q246 303 243.0 270.0Q240 237 238.5 211.0Q237 185 237 171Q237 145 243.0 136.5Q249 128 263 128Q274 128 282.0 132.0Q290 136 297.0 141.0Q304 146 309.5 150.0Q315 154 322 154Q329 154 335.0 146.0Q341 138 341 109Q341 54 311.0 22.0Q281 -10 208 -10Q136 -10 101.5 23.5Q67 57 67 126Q67 141 68.5 161.5Q70 182 73.0 215.0Q76 248 80.5 296.0Q85 344 90 415H37Q29 415 27.5 418.5Q26 422 26 429L29 480Q30 493 32.5 505.5Q35 518 42.5 528.0Q50 538 64.0 544.0Q78 550 101 550Q108 568 117.0 593.0Q126 618 135.0 641.5Q144 665 152.5 681.0Q161 697 168 697H197Q239 697 255.0 671.0Q271 645 271 609Q271 589 268 550H373Q389 550 389 536L385 482Q383 452 368.5 433.5Q354 415 309 415Z" transform="translate(123.696, 72) scale(0.072, -0.072)" /><path d="M274 560Q359 560 399.0 526.5Q439 493 439 441Q439 397 411.5 374.0Q384 351 332 351Q318 351 313.0 354.0Q308 357 308 365Q308 374 306.5 385.5Q305 397 299.5 407.5Q294 418 282.5 425.0Q271 432 250 432Q222 432 205.0 418.5Q188 405 188 385Q188 364 205.5 351.5Q223 339 249.5 328.0Q276 317 307.0 305.5Q338 294 364.5 275.0Q391 256 408.5 227.5Q426 199 426 154Q426 82 375.0 36.0Q324 -10 222 -10Q194 -10 157.5 -5.5Q121 -1 88.0 8.5Q55 18 32.5 34.0Q10 50 10 74Q10 83 13.5 96.0Q17 109 24.5 121.0Q32 133 42.5 141.5Q53 150 68 150Q80 150 90.0 144.0Q100 138 113.5 131.5Q127 125 147.0 119.0Q167 113 200 113Q225 113 244.5 119.0Q264 125 264 146Q264 165 248.0 176.5Q232 188 207.5 198.0Q183 208 154.5 219.5Q126 231 101.5 250.0Q77 269 61.0 298.5Q45 328 45 375Q45 426 65.5 461.5Q86 497 118.5 519.0Q151 541 192.0 550.5Q233 560 274 560Z" transform="translate(152.424, 72) scale(0.072, -0.072)" /><path d="M272 -10Q228 -10 184.5 1.0Q141 12 106.5 39.0Q72 66 50.0 111.0Q28 156 28 224Q28 249 32.0 284.0Q36 319 47.5 356.0Q59 393 79.5 429.5Q100 466 133.0 495.0Q166 524 213.0 542.0Q260 560 325 560Q377 560 413.0 548.0Q449 536 471.0 515.5Q493 495 503.0 468.0Q513 441 513 410Q513 364 494.5 332.0Q476 300 446.5 278.5Q417 257 381.0 245.0Q345 233 310.0 226.5Q275 220 245.5 218.5Q216 217 200 217Q200 198 205.5 179.5Q211 161 222.0 147.0Q233 133 251.0 124.0Q269 115 295 115Q321 115 335.5 123.5Q350 132 359.0 142.5Q368 153 374.5 161.5Q381 170 392 170Q397 170 409.5 167.5Q422 165 435.0 157.0Q448 149 458.0 135.0Q468 121 468 99Q468 70 450.0 49.0Q432 28 403.5 15.0Q375 2 340.0 -4.0Q305 -10 272 -10ZM291 427Q269 427 253.5 414.5Q238 402 227.5 383.0Q217 364 211.5 341.0Q206 318 203 297Q265 298 303.5 318.0Q342 338 342 375Q342 395 329.5 411.0Q317 427 291 427Z" transform="translate(186.264, 72) scale(0.072, -0.072)" /><path d="M382 88Q382 110 385.5 145.5Q389 181 392.5 220.5Q396 260 399.5 297.0Q403 334 403 359Q403 385 390.5 405.5Q378 426 342 426Q307 426 284.0 409.0Q261 392 245.5 347.0Q230 302 220.0 223.0Q210 144 201 20Q200 8 196.0 4.0Q192 0 179 0H143Q112 0 92.5 6.5Q73 13 61.5 25.0Q50 37 45.5 54.5Q41 72 41 95Q41 110 42.5 137.5Q44 165 48.0 213.5Q52 262 57.5 336.5Q63 411 71 521Q72 543 76 547Q79 550 92 550H131Q161 550 180.5 543.0Q200 536 212.0 524.5Q224 513 229.0 497.5Q234 482 235 466Q266 519 306.0 539.5Q346 560 406 560Q448 560 479.0 551.0Q510 542 530.5 520.5Q551 499 561.0 464.5Q571 430 571 379Q571 363 569.0 333.0Q567 303 564.0 267.5Q561 232 557.5 193.5Q554 155 551.0 122.0Q548 89 546.0 64.0Q544 39 544 31Q544 9 539.0 4.5Q534 0 517 0H485Q453 0 433.0 6.0Q413 12 402.0 23.0Q391 34 386.5 50.5Q382 67 382 88Z" transform="translate(224.568, 72) scale(0.072, -0.072)" /><path d="M405 721Q478 721 530.0 700.5Q582 680 615.0 640.5Q648 601 663.0 544.5Q678 488 678 416Q678 376 672.5 329.0Q667 282 652.5 234.5Q638 187 613.0 143.0Q588 99 548.5 65.0Q509 31 454.0 10.5Q399 -10 324 -10Q241 -10 186.5 15.0Q132 40 99.5 82.5Q67 125 53.5 183.0Q40 241 40 307Q40 385 58.0 459.5Q76 534 118.5 592.0Q161 650 231.0 685.5Q301 721 405 721ZM384 566Q349 566 323.5 553.5Q298 541 280.5 520.0Q263 499 252.5 473.0Q242 447 236.0 419.5Q230 392 228.0 366.5Q226 341 226 321Q226 230 256.5 188.0Q287 146 343 146Q389 146 418.0 175.5Q447 205 463.5 246.5Q480 288 486.0 332.5Q492 377 492 408Q492 481 467.0 523.5Q442 566 384 566Z" transform="translate(284.61600000000004, 72) scale(0.072, -0.072)" /><path d="M382 88Q382 110 385.5 145.5Q389 181 392.5 220.5Q396 260 399.5 297.0Q403 334 403 359Q403 385 390.5 405.5Q378 426 342 426Q307 426 284.0 409.0Q261 392 245.5 347.0Q230 302 220.0 223.0Q210 144 201 20Q200 8 196.0 4.0Q192 0 179 0H143Q112 0 92.5 6.5Q73 13 61.5 25.0Q50 37 45.5 54.5Q41 72 41 95Q41 110 42.5 137.5Q44 165 48.0 213.5Q52 262 57.5 336.5Q63 411 71 521Q72 543 76 547Q79 550 92 550H131Q161 550 180.5 543.0Q200 536 212.0 524.5Q224 513 229.0 497.5Q234 482 235 466Q266 519 306.0 539.5Q346 560 406 560Q448 560 479.0 551.0Q510 542 530.5 520.5Q551 499 561.0 464.5Q571 430 571 379Q571 363 569.0 333.0Q567 303 564.0 267.5Q561 232 557.5 193.5Q554 155 551.0 122.0Q548 89 546.0 64.0Q544 39 544 31Q544 9 539.0 4.5Q534 0 517 0H485Q453 0 433.0 6.0Q413 12 402.0 23.0Q391 34 386.5 50.5Q382 67 382 88Z" transform="translate(335.80800000000005, 72) scale(0.072, -0.072)" /><path d="M272 -10Q228 -10 184.5 1.0Q141 12 106.5 39.0Q72 66 50.0 111.0Q28 156 28 224Q28 249 32.0 284.0Q36 319 47.5 356.0Q59 393 79.5 429.5Q100 466 133.0 495.0Q166 524 213.0 542.0Q260 560 325 560Q377 560 413.0 548.0Q449 536 471.0 515.5Q493 495 503.0 468.0Q513 441 513 410Q513 364 494.5 332.0Q476 300 446.5 278.5Q417 257 381.0 245.0Q345 233 310.0 226.5Q275 220 245.5 218.5Q216 217 200 217Q200 198 205.5 179.5Q211 161 222.0 147.0Q233 133 251.0 124.0Q269 115 295 115Q321 115 335.5 123.5Q350 132 359.0 142.5Q368 153 374.5 161.5Q381 170 392 170Q397 170 409.5 167.5Q422 165 435.0 157.0Q448 149 458.0 135.0Q468 121 468 99Q468 70 450.0 49.0Q432 28 403.5 15.0Q375 2 340.0 -4.0Q305 -10 272 -10ZM291 427Q269 427 253.5 414.5Q238 402 227.5 383.0Q217 364 211.5 341.0Q206 318 203 297Q265 298 303.5 318.0Q342 338 342 375Q342 395 329.5 411.0Q317 427 291 427Z" transform="translate(380.37600000000003, 72) scale(0.072, -0.072)" /></g></svg>
